X: 7
T: Bride's Waltz
C: trad.
O: transcribed by Shana Aisenberg
R: waltz
S: Fiddle Hell Online 2020-11-09 handout for Klezmer Jam led by Shana Aisenberg
Z: 2020 John Chambers <jc:trillian.mit.edu>
M: 3/4
L: 1/8
K: Em
"^A"|:\
"Em"B,6 | E4- EG | FE ^DE FG | FG E2 E2 |\
"Em"B,6 | E4- EG | FE ^DC B,A, | B,C B,A, B,2 ||
"Em"B,6 | E4- EG | FE ^DE FG | FG E2 E2 |\
"Em"B4 d2 | ^ce B2 ^A2 | B6 | e6 :|
"^B"|:\
"Em"e2 B2 B2 | ^AB G2 G2 | ^AB G2 G2 | FG E2 E2 |\
"Em"B4 d2 | ^cd B2 ^A2 | B6 | e6 ||
"Em"e2 B2 B2 | ^AB G2 G2 | ^AB G2 G2 | FG E2 E2 |\
"C"G3 F AG | "B"F3 E FG | "Em"E3 e BG | E6 :|
"^C"|:\
"Em"d^c dc dc | de d2 ^c2 | B^A BA BA | B^c B2 ^A2 |\
B3 ^A AG | G3 F FE | {^A^c}B6- | B6 ||
"Em"d^c dc dc | de d2 ^c2 | B^A BA BA | B^c B2 ^A2 |\
B3 ^A AG | "B"G3 F FE | "Em"E3 e BG | E6 :|


